d1 $ fast 2 $ s "ho:4 hc ho:4 hc"

-- cut is used to remove the overlap of sounds
d1 $ fast 2 $ s "ho:4 hc ho:4 hc" # cut 1

d1 $ "sax(3, 8)" # cut 1

-- legato is used to play a long song only for that particular portion of a cycle
d1 $ "sax(3, 8)" # legato 1
